X: 37580
T: Smelling Fresh
R: reel
M: 4/4
K: Dmajor
[M:7/8]|:cd d2 AdA|Bd eB dBA|Be e2 edA|Be ef aaa|
cd d2 AdA|Bd eB dBA|Be ef aaa|af ef edB:|
|:cd d2 AdA|Bd eA dBA d2 A|Be e2 edA|Be ef afe|
cd d2 AdA|cd ed dBA|Be ef aaa|af ef edd:|
|:fa a/a/a fae|ff fa eff|Aa Aa fea|fe dA BBB|
AB BA d2 A|ef Aa fed|Bd ef aaa|af ef edB:|
|:fa a/a/a fae|ff fa eff|Aa Aa aAa|fe ad ABB|
AB BA d2 A|ef Aa fed|Bd ef aaa|af ef edB:|

